communes/5610.svg

<?xml version="1.0" encoding="UTF-8"?>
<svg version="1.0" viewBox="0 0 603 763" xmlns="http://www.w3.org/2000/svg" xmlns:cc="http://creativecommons.org/ns#" xmlns:dc="http://purl.org/dc/elements/1.1/" xmlns:rdf="http://www.w3.org/1999/02/22-rdf-syntax-ns#" xmlns:xlink="http://www.w3.org/1999/xlink">
<metadata>
<rdf:RDF>
<cc:Work rdf:about="">
<dc:format>image/svg+xml</dc:format>
<dc:type rdf:resource="http://purl.org/dc/dcmitype/StillImage"/>
<dc:date>07-AUG-2006</dc:date>
<dc:creator>
<cc:Agent>
<dc:title>Jérôme BLUM (wagner51)</dc:title>
</cc:Agent>
</dc:creator>
<cc:license rdf:resource="http://creativecommons.org/licenses/GPL/2.0/"/>
<dc:coverage/>
<dc:description>Gabarit pour le Projet:Blasons de WIkipédia</dc:description>
<dc:subject>
<rdf:Bag>
<rdf:li>blason suisse modèle gabarit projet blasons</rdf:li>
</rdf:Bag>
</dc:subject>
<dc:language>fr</dc:language>
<dc:title>Gabrit d'un blason suisse</dc:title>
</cc:Work>
<cc:License rdf:about="http://creativecommons.org/licenses/GPL/2.0/">
<cc:permits rdf:resource="http://web.resource.org/cc/Reproduction"/>
<cc:permits rdf:resource="http://web.resource.org/cc/Distribution"/>
<cc:requires rdf:resource="http://web.resource.org/cc/Notice"/>
<cc:permits rdf:resource="http://web.resource.org/cc/DerivativeWorks"/>
<cc:requires rdf:resource="http://web.resource.org/cc/ShareAlike"/>
<cc:requires rdf:resource="http://web.resource.org/cc/SourceCode"/>
</cc:License>
</rdf:RDF>
</metadata>
<defs>
<radialGradient id="a" cx="858.04" cy="579.93" r="300" gradientTransform="matrix(1.215 1.5316e-24 1.4647e-23 1.2667 -839.19 -490.49)" gradientUnits="userSpaceOnUse">
<stop stop-color="#fff" stop-opacity=".31373" offset="0"/>
<stop stop-color="#fff" stop-opacity=".25098" offset=".19"/>
<stop stop-color="#6b6b6b" stop-opacity=".12549" offset=".6"/>
<stop stop-opacity=".12549" offset="1"/>
</radialGradient>
</defs>
<desc>Coat of Arms of Canton of Freiburg (Fribourg)</desc>
<g>
<path d="m1.5 1.5v458.87c0 166.31 134.31 301.13 300 301.13 165.69 0 300-134.82 300-301.13v-458.87h-600z" fill="#fff"/>
<path d="m1.5 367v93.369c0 166.31 134.31 301.13 300 301.13 165.69 0 300-134.82 300-301.13v-93.369h-600z" fill="#e20909"/>
<path d="m188.84 276.11c32.687 36.02 13.279 56.033 42.175 90.889h196.64c-3.211-6.601-7.837-13.636-14.901-21.421-33.924-37.383-56.112-17.245-90.039-54.628-33.922-37.379-11.731-57.517-45.655-94.898-33.924-37.382-56.114-17.243-90.04-54.626-33.924-37.383-11.733-57.521-45.658-94.902-30.529-33.642-51.557-20.71-80.182-45.025h-59.681v95.683c16.316 5.398 32.016 7.774 51.641 29.399 33.923 37.383 11.731 57.523 45.655 94.906 33.925 37.382 56.117 17.241 90.041 54.623z" fill="#e20909"/>
<path d="m234.49 371.01c33.924 37.382 56.117 17.243 90.039 54.625 33.925 37.38 11.732 57.52 45.656 94.902 33.926 37.382 56.118 17.241 90.041 54.621 33.921 37.383 11.73 57.521 45.654 94.905 1.827 2.013 3.619 3.858 5.382 5.556 29.847-29.309 53.633-64.808 69.269-104.44-14.143-26.419-4.306-45.467-32.086-76.075-33.922-37.379-56.112-17.243-90.031-54.624-26.859-29.596-18.551-48.385-30.759-73.478h-196.64c1.092 1.317 2.244 2.652 3.479 4.013z" fill="#fff"/>
<line x1="1.5" x2="601.5" y1="367" y2="367" fill="none" stroke="#000" stroke-width="3"/>
<path d="m580.53 571.18c-14.143-26.419-4.306-45.467-32.086-76.075-33.922-37.379-56.112-17.243-90.031-54.624-33.925-37.381-11.738-57.52-45.66-94.899-33.924-37.383-56.112-17.245-90.039-54.628-33.922-37.379-11.731-57.517-45.655-94.898-33.924-37.382-56.114-17.243-90.04-54.626-33.924-37.383-11.733-57.521-45.658-94.902-30.528-33.642-51.556-20.71-80.181-45.025" fill="none" stroke="#000" stroke-width="3"/>
<path d="m1.5 97.183c16.316 5.398 32.016 7.774 51.641 29.399 33.923 37.383 11.731 57.523 45.655 94.906 33.925 37.382 56.117 17.242 90.042 54.624 33.922 37.38 11.729 57.52 45.654 94.902 33.924 37.382 56.117 17.243 90.039 54.625 33.925 37.38 11.732 57.52 45.656 94.902 33.926 37.382 56.118 17.241 90.041 54.621 33.921 37.383 11.73 57.521 45.654 94.905 1.827 2.013 3.619 3.858 5.382 5.556" fill="none" stroke="#000" stroke-width="3"/>
</g>
<g>
<path d="m1.5 1.5v458.87c0 166.31 134.31 301.13 300 301.13 165.69 0 300-134.82 300-301.13v-458.87h-600z" fill="url(#a)"/>
<path d="m1.5 1.5v458.87c0 166.31 134.31 301.13 300 301.13 165.69 0 300-134.82 300-301.13v-458.87h-600z" fill="none" stroke="#000" stroke-width="3"/>
</g>
</svg>

<?xml version="1.0" encoding="UTF-8" standalone="no"?>
<svg
   xmlns:dc="http://purl.org/dc/elements/1.1/"
   xmlns:cc="http://creativecommons.org/ns#"
   xmlns:rdf="http://www.w3.org/1999/02/22-rdf-syntax-ns#"
   xmlns:svg="http://www.w3.org/2000/svg"
   xmlns="http://www.w3.org/2000/svg"
   xmlns:xlink="http://www.w3.org/1999/xlink"
   xmlns:sodipodi="http://sodipodi.sourceforge.net/DTD/sodipodi-0.dtd"
   xmlns:inkscape="http://www.inkscape.org/namespaces/inkscape"
   height="763"
   width="603"
   version="1.0"
   id="svg20"
   sodipodi:version="0.32"
   inkscape:version="0.46"
   sodipodi:docname="Saint-Saphorin-coat_of_arms.svg"
   sodipodi:docbase="C:\Documents and Settings\Steve\Bureau\Blason Villages Suisse pour Wikipédia (par Delta-9)"
   inkscape:output_extension="org.inkscape.output.svg.inkscape">
  <metadata
     id="metadata31">
    <rdf:RDF>
      <cc:Work
         rdf:about="">
        <dc:format>image/svg+xml</dc:format>
        <dc:type
           rdf:resource="http://purl.org/dc/dcmitype/StillImage" />
        <dc:date>07-AUG-2006</dc:date>
        <dc:creator>
          <cc:Agent>
            <dc:title>Jérôme BLUM (wagner51)</dc:title>
          </cc:Agent>
        </dc:creator>
        <cc:license
           rdf:resource="http://creativecommons.org/licenses/GPL/2.0/" />
        <dc:coverage />
        <dc:description>Gabarit pour le Projet:Blasons de WIkipédia</dc:description>
        <dc:subject>
          <rdf:Bag>
            <rdf:li>blason suisse modèle gabarit projet blasons</rdf:li>
          </rdf:Bag>
        </dc:subject>
        <dc:language>fr</dc:language>
        <dc:title>Gabrit d'un blason suisse</dc:title>
      </cc:Work>
      <cc:License
         rdf:about="http://creativecommons.org/licenses/GPL/2.0/">
        <cc:permits
           rdf:resource="http://web.resource.org/cc/Reproduction" />
        <cc:permits
           rdf:resource="http://web.resource.org/cc/Distribution" />
        <cc:requires
           rdf:resource="http://web.resource.org/cc/Notice" />
        <cc:permits
           rdf:resource="http://web.resource.org/cc/DerivativeWorks" />
        <cc:requires
           rdf:resource="http://web.resource.org/cc/ShareAlike" />
        <cc:requires
           rdf:resource="http://web.resource.org/cc/SourceCode" />
      </cc:License>
    </rdf:RDF>
  </metadata>
  <defs
     id="defs29"><inkscape:perspective
   sodipodi:type="inkscape:persp3d"
   inkscape:vp_x="0 : 381.5 : 1"
   inkscape:vp_y="0 : 1000 : 0"
   inkscape:vp_z="603 : 381.5 : 1"
   inkscape:persp3d-origin="301.5 : 254.33333 : 1"
   id="perspective28" />
<linearGradient
   id="linearGradient2893">
  <stop
     style="stop-color:#ffffff;stop-opacity:0.3137255;"
     offset="0"
     id="stop2895" />
  <stop
     id="stop2897"
     offset="0.19"
     style="stop-color:#ffffff;stop-opacity:0.25098041;" />
  <stop
     style="stop-color:#6b6b6b;stop-opacity:0.1254902;"
     offset="0.60000002"
     id="stop2901" />
  <stop
     style="stop-color:#000000;stop-opacity:0.1254902;"
     offset="1"
     id="stop2899" />
</linearGradient>
<linearGradient
   id="linearGradient2955">
  <stop
     style="stop-color:white;stop-opacity:0;"
     offset="0"
     id="stop2965" />
  <stop
     style="stop-color:black;stop-opacity:0.64583331;"
     offset="1"
     id="stop2959" />
</linearGradient>
<radialGradient
   inkscape:collect="always"
   xlink:href="#linearGradient2893"
   id="radialGradient3236"
   gradientUnits="userSpaceOnUse"
   gradientTransform="matrix(1.215027,1.531577e-24,1.464684e-23,1.266667,-839.1924,-490.4894)"
   cx="858.04236"
   cy="579.93323"
   fx="858.04236"
   fy="579.93323"
   r="300" />
<inkscape:perspective
   id="perspective2497"
   inkscape:persp3d-origin="297.63751 : 280.63 : 1"
   inkscape:vp_z="595.27502 : 420.94501 : 1"
   inkscape:vp_y="0 : 1000 : 0"
   inkscape:vp_x="0 : 420.94501 : 1"
   sodipodi:type="inkscape:persp3d" />

	
	
	
	
	

	
	
</defs>
  <sodipodi:namedview
     inkscape:window-height="968"
     inkscape:window-width="1280"
     inkscape:pageshadow="2"
     inkscape:pageopacity="0.0"
     guidetolerance="10.0"
     gridtolerance="10.0"
     objecttolerance="10.0"
     borderopacity="1.0"
     bordercolor="#666666"
     pagecolor="#ffffff"
     id="base"
     inkscape:zoom="0.92652193"
     inkscape:cx="173.53758"
     inkscape:cy="399.00713"
     inkscape:window-x="1280"
     inkscape:window-y="22"
     inkscape:current-layer="layer2"
     showgrid="false"
     showguides="true"
     inkscape:guide-bbox="true">
    <sodipodi:guide
       orientation="horizontal"
       position="761.5"
       id="guide1885" />
    <sodipodi:guide
       orientation="vertical"
       position="1.5"
       id="guide1887" />
    <sodipodi:guide
       orientation="horizontal"
       position="1.5"
       id="guide1889" />
    <sodipodi:guide
       orientation="vertical"
       position="601.5"
       id="guide1891" />
    <sodipodi:guide
       orientation="vertical"
       position="301.50081"
       id="guide1893" />
  </sodipodi:namedview>
  <desc
     id="desc22">Coat of Arms of Canton of Freiburg (Fribourg)</desc>
  <g
     inkscape:groupmode="layer"
     id="layer1"
     inkscape:label="Fond écu"
     style="opacity:1;display:inline"
     sodipodi:insensitive="true">
    <path
       d="M 1.5,1.5 L 1.5,460.369 C 1.5,626.68 135.814,761.5 301.5,761.5 C 467.188,761.5 601.5,626.68 601.5,460.369 L 601.5,1.5 L 1.5,1.5 z"
       id="path3319"
       style="opacity:1;fill:#ffffff" />
    <path
       d="M 1.5,367 L 1.5,460.369 C 1.5,626.68 135.814,761.5 301.5,761.5 C 467.188,761.5 601.5,626.68 601.5,460.369 L 601.5,367 L 1.5,367 L 1.5,367 z"
       id="path3321"
       style="opacity:1;fill:#e20909" />
  </g>
  <g
     inkscape:groupmode="layer"
     id="layer2"
     inkscape:label="Meubles"
     style="opacity:1;display:inline"
     sodipodi:insensitive="true">
    <path
       id="path2483"
       d="M 188.837,276.111 C 221.524,312.131 202.116,332.144 231.012,367 L 427.656,367 C 424.445,360.399 419.819,353.364 412.755,345.579 C 378.831,308.196 356.643,328.334 322.716,290.951 C 288.794,253.572 310.985,233.434 277.061,196.053 C 243.137,158.671 220.947,178.81 187.021,141.427 C 153.097,104.044 175.288,83.906 141.363,46.525 C 110.834,12.883 89.806,25.815 61.181,1.5 L 1.5,1.5 L 1.5,97.183 C 17.816,102.581 33.516,104.957 53.141,126.582 C 87.064,163.965 64.872,184.105 98.796,221.488 C 132.721,258.87 154.913,238.729 188.837,276.111 z"
       style="fill:#e20909" />
    <path
       id="path2485"
       d="M 234.491,371.013 C 268.415,408.395 290.608,388.256 324.53,425.638 C 358.455,463.018 336.262,483.158 370.186,520.54 C 404.112,557.922 426.304,537.781 460.227,575.161 C 494.148,612.544 471.957,632.682 505.881,670.066 C 507.708,672.079 509.5,673.924 511.263,675.622 C 541.11,646.313 564.896,610.814 580.532,571.177 C 566.389,544.758 576.226,525.71 548.446,495.102 C 514.524,457.723 492.334,477.859 458.415,440.478 C 431.556,410.882 439.864,392.093 427.656,367 L 231.012,367 C 232.104,368.317 233.256,369.652 234.491,371.013 z"
       style="fill:#ffffff" />
    <line
       y2="367.00003"
       x2="601.49701"
       y1="367.00003"
       x1="1.500003"
       id="line2484"
       style="fill:none;stroke:#000000;stroke-width:3" />
    <path
       id="path2488"
       d="M 580.531,571.177 C 566.388,544.758 576.225,525.71 548.445,495.102 C 514.523,457.723 492.333,477.859 458.414,440.478 C 424.489,403.097 446.676,382.958 412.754,345.579 C 378.83,308.196 356.642,328.334 322.715,290.951 C 288.793,253.572 310.984,233.434 277.06,196.053 C 243.136,158.671 220.946,178.81 187.02,141.427 C 153.096,104.044 175.287,83.906 141.362,46.525 C 110.834,12.883 89.806,25.815 61.181,1.5"
       style="fill:none;stroke:#000000;stroke-width:3" />
    <path
       id="path2490"
       d="M 1.5,97.183 C 17.816,102.581 33.516,104.957 53.141,126.582 C 87.064,163.965 64.872,184.105 98.796,221.488 C 132.721,258.87 154.913,238.73 188.838,276.112 C 222.76,313.492 200.567,333.632 234.492,371.014 C 268.416,408.396 290.609,388.257 324.531,425.639 C 358.456,463.019 336.263,483.159 370.187,520.541 C 404.113,557.923 426.305,537.782 460.228,575.162 C 494.149,612.545 471.958,632.683 505.882,670.067 C 507.709,672.08 509.501,673.925 511.264,675.623"
       style="fill:none;stroke:#000000;stroke-width:3" />
  </g>
  <g
     inkscape:groupmode="layer"
     id="layer3"
     inkscape:label="Reflet final"
     style="display:inline"
     sodipodi:insensitive="true">
    <path
       style="fill:url(#radialGradient3236);fill-opacity:1"
       d="M 1.5,1.5 L 1.5,460.3679 C 1.5,626.67854 135.81454,761.5 301.49993,761.5 C 467.1854,761.5 601.5,626.67854 601.5,460.3679 L 601.5,1.5 L 1.5,1.5 z "
       id="path2346" />
  </g>
  <g
     inkscape:groupmode="layer"
     id="layer4"
     inkscape:label="Contour final"
     style="display:inline"
     sodipodi:insensitive="true">
    <path
       style="fill:none;fill-opacity:1;stroke:#000000;stroke-width:3;stroke-miterlimit:4;stroke-dasharray:none;stroke-opacity:1"
       d="M 1.5,1.5 L 1.5,460.36794 C 1.5,626.67854 135.81454,761.5 301.49993,761.5 C 467.1854,761.5 601.5,626.67854 601.5,460.36794 L 601.5,1.5 L 1.5,1.5 z "
       id="path3239" />
  </g>
</svg>
